assets/trophy.svg

<svg xmlns="http://www.w3.org/2000/svg" fill="none" viewBox="0 0 28 28">
  <path fill="#2A2238" d="M4.35036.875c0-.232064.09245-.454624.25701-.618718C4.77192.0921873 4.99512 0 5.22784 0H22.7774c.2327 0 .4559.0921873.6205.256282.1646.164094.257.386654.257.618718 0 .9415-.0211 1.8375-.0597 2.688.6935.1145 1.3569.36631 1.9512.74057.5943.37425 1.1074.86338 1.5091 1.43855.4017.57516.6838 1.2247.8298 1.91033.1459.68562.1527 1.39345.0199 2.08173-.1328.68832-.4024 1.34312-.793 1.92582-.3906.5827-.8943 1.0815-1.4813 1.467-.587.3855-1.2455.6499-1.9366.7776-.6911.1277-1.4009.1161-2.0874-.0341-1.3865 3.2638-3.2958 4.8598-4.9718 5.2693v3.8027l2.5008.623c.3404.084.6616.2362.9424.4462l3.2256 2.4133c.1473.1102.2562.2638.3111.4391.0549.1753.0531.3634-.0051.5376-.0583.1742-.17.3258-.3194.4331-.1494.1074-.3289.1652-.5131.1652H5.22784c-.18417 0-.36367-.0578-.51307-.1652-.14941-.1073-.26114-.2589-.31938-.4331-.05824-.1742-.06003-.3623-.00512-.5376.05491-.1753.16375-.3289.31108-.4391l3.22561-2.4133c.2808-.21.60195-.3622.94242-.4462l2.50082-.623v-3.8027c-1.67599-.4095-3.58539-2.0055-4.97181-5.271-.68691.151-1.39721.1632-2.08894.0359-.69173-.1273-1.35087-.3915-1.93849-.7771-.58762-.3855-1.0918-.8846-1.482773-1.4676-.390973-.5831-.660807-1.2384-.7935659-1.92726-.1327589-.68882-.1257509-1.39718.0206099-2.08325.146361-.68607.429107-1.33594.83154-1.91123.402429-.57529.916389-1.06433 1.511529-1.43824.59513-.37391 1.25937-.62511 1.95348-.73877-.04131-.89482-.06179-1.79048-.06142-2.68625ZM4.5241 5.32c-.91576.16709-1.72745.69009-2.25651 1.45394-.52906.76386-.73215 1.70601-.56459 2.61918.16756.91318.69204 1.72258 1.45807 2.25018.76602.5275 1.71084.73 2.6266.563-.5844-1.8375-1.03192-4.10555-1.26357-6.8863Zm17.6952 6.8863c.9158.167 1.8606-.0355 2.6266-.563.7661-.5276 1.2905-1.337 1.4581-2.25018.1676-.91317-.0355-1.85532-.5646-2.61918-.529-.76385-1.3407-1.28685-2.2565-1.45394-.2334 2.7825-.6809 5.0488-1.2636 6.8863ZM6.11234 1.75c.01228.90475.04562 1.7605.09827 2.57075.22815 3.549.80202 6.20545 1.52682 8.16725C9.25371 16.59 11.3421 17.5 12.2477 17.5c.2327 0 .4559.0922.6204.2563.1646.1641.257.3866.257.6187v4.5675c0 .3901-.1307.7691-.3714 1.0766-.2407.3076-.5776.5261-.9571.6209l-2.50252.623c-.11362.0282-.22043.0788-.31414.1488l-1.11967.8382H20.145l-1.1197-.8382c-.0942-.0702-.2017-.1208-.3159-.1488l-2.5008-.623c-.3795-.0948-.7163-.3133-.957-.6209-.2407-.3075-.3715-.6865-.3715-1.0766V18.375c0-.2321.0925-.4546.257-.6187.1646-.1641.3878-.2563.6205-.2563.9055 0 2.9939-.91 4.5102-5.012.7248-1.96 1.2987-4.62 1.5268-8.16725.0527-.81025.086-1.666.0983-2.57075H6.11234Z"/>
</svg>

<svg width="28" height="28" viewBox="0 0 28 28" fill="none" xmlns="http://www.w3.org/2000/svg">
<path d="M4.35036 0.875C4.35036 0.642936 4.44281 0.420376 4.60737 0.256282C4.77192 0.0921873 4.99512 0 5.22784 0L22.7774 0C23.0101 0 23.2333 0.0921873 23.3979 0.256282C23.5625 0.420376 23.6549 0.642936 23.6549 0.875C23.6549 1.8165 23.6338 2.7125 23.5952 3.563C24.2887 3.6775 24.9521 3.92931 25.5464 4.30357C26.1407 4.67782 26.6538 5.16695 27.0555 5.74212C27.4572 6.31728 27.7393 6.96682 27.8853 7.65245C28.0312 8.33807 28.038 9.0459 27.9052 9.73418C27.7724 10.4225 27.5028 11.0773 27.1122 11.66C26.7216 12.2427 26.2179 12.7415 25.6309 13.127C25.0439 13.5125 24.3854 13.7769 23.6943 13.9046C23.0032 14.0323 22.2934 14.0207 21.6069 13.8705C20.2204 17.1343 18.3111 18.7303 16.6351 19.1398V22.9425L19.1359 23.5655C19.4763 23.6495 19.7975 23.8017 20.0783 24.0117L23.3039 26.425C23.4512 26.5352 23.5601 26.6888 23.615 26.8641C23.6699 27.0394 23.6681 27.2275 23.6099 27.4017C23.5516 27.5759 23.4399 27.7275 23.2905 27.8348C23.1411 27.9422 22.9616 28 22.7774 28H5.22784C5.04367 28 4.86417 27.9422 4.71477 27.8348C4.56536 27.7275 4.45363 27.5759 4.39539 27.4017C4.33715 27.2275 4.33536 27.0394 4.39027 26.8641C4.44518 26.6888 4.55402 26.5352 4.70135 26.425L7.92696 24.0117C8.20776 23.8017 8.52891 23.6495 8.86938 23.5655L11.3702 22.9425V19.1398C9.69421 18.7303 7.78481 17.1343 6.39839 13.8688C5.71148 14.0198 5.00118 14.032 4.30945 13.9047C3.61772 13.7774 2.95858 13.5132 2.37096 13.1276C1.78334 12.7421 1.27916 12.243 0.888187 11.66C0.497214 11.0769 0.22738 10.4216 0.0946211 9.73274C-0.0381378 9.04392 -0.0311298 8.33556 0.115231 7.64949C0.261592 6.96342 0.544338 6.31355 0.946771 5.73826C1.3492 5.16297 1.86316 4.67393 2.4583 4.30002C3.05343 3.92611 3.71767 3.67491 4.41178 3.56125C4.37047 2.66643 4.34999 1.77077 4.35036 0.875ZM4.5241 5.32C3.60834 5.48709 2.79665 6.01009 2.26759 6.77394C1.73853 7.5378 1.53544 8.47995 1.703 9.39312C1.87056 10.3063 2.39504 11.1157 3.16107 11.6433C3.92709 12.1708 4.87191 12.3733 5.78767 12.2063C5.20327 10.3688 4.75575 8.10075 4.5241 5.32ZM22.2193 12.2063C23.1351 12.3733 24.0799 12.1708 24.8459 11.6433C25.612 11.1157 26.1364 10.3063 26.304 9.39312C26.4716 8.47995 26.2685 7.5378 25.7394 6.77394C25.2104 6.01009 24.3987 5.48709 23.4829 5.32C23.2495 8.1025 22.802 10.3688 22.2193 12.2063ZM6.11234 1.75C6.12462 2.65475 6.15796 3.5105 6.21061 4.32075C6.43876 7.86975 7.01263 10.5262 7.73743 12.488C9.25371 16.59 11.3421 17.5 12.2477 17.5C12.4804 17.5 12.7036 17.5922 12.8681 17.7563C13.0327 17.9204 13.1251 18.1429 13.1251 18.375V22.9425C13.1251 23.3326 12.9944 23.7116 12.7537 24.0191C12.513 24.3267 12.1761 24.5452 11.7966 24.64L9.29408 25.263C9.18046 25.2912 9.07365 25.3418 8.97994 25.4118L7.86027 26.25H20.145L19.0253 25.4118C18.9311 25.3416 18.8236 25.291 18.7094 25.263L16.2086 24.64C15.8291 24.5452 15.4923 24.3267 15.2516 24.0191C15.0109 23.7116 14.8801 23.3326 14.8801 22.9425V18.375C14.8801 18.1429 14.9726 17.9204 15.1371 17.7563C15.3017 17.5922 15.5249 17.5 15.7576 17.5C16.6631 17.5 18.7515 16.59 20.2678 12.488C20.9926 10.528 21.5665 7.868 21.7946 4.32075C21.8473 3.5105 21.8806 2.65475 21.8929 1.75H6.11234Z" fill="#2A2238"/>
</svg>
